dist/img/icons/facebook.svg

<svg width="16" height="28" viewBox="0 0 16 28" fill="none" xmlns="http://www.w3.org/2000/svg">
<path d="M10.6663 10.6663H15.6663V15.6663H10.6663V27.3325H5.66626V15.6663H0.66626V10.6663H5.66626V8.57501C5.66626 6.59376 6.29001 4.09001 7.53001 2.72126C8.77001 1.35001 10.3188 0.66626 12.1738 0.66626H15.6675V5.66626H12.1675C11.3375 5.66626 10.6675 6.33626 10.6675 7.16501V10.6663H10.6663Z" fill="#134731"/>
</svg>

<svg width="16" height="28" fill="none" xmlns="http://www.w3.org/2000/svg"><path d="M10.666 10.666h5v5h-5v11.666h-5V15.666h-5v-5h5V8.575c0-1.981.624-4.485 1.864-5.854C8.77 1.35 10.319.666 12.174.666h3.494v5h-3.5c-.83 0-1.5.67-1.5 1.499v3.501h-.002z" fill="#134731"/></svg>
